X: 3
T: The Connemara Stockings
R: reel
M: 4/4
L: 1/8
K: Gmaj
|:g2fg edBA|GABG AGEF|G2Bd eaag|1 fdef gaba:|2 fdef ~g3f||
gbef gbeg|fade fadf|gbef gbeg|fedf e2ed|
ebba b2ag|faab afdf|gabg f2af|edef gfef||


Tune 614	Setting 27964

